icons/op-export-pdf-24.svg

<svg width="24" height="24" viewBox="0 0 24 24" fill="none" xmlns="http://www.w3.org/2000/svg">
<path d="M18 7.6875L14.3756 4H6V20H18V7.6875ZM7.40102 18.5625V5.4375H13.797L16.599 8.3125V18.5625H7.40102ZM10.2335 14.9062C10.1421 14.8438 10.0203 14.7812 9.89848 14.7188C9.74619 14.6875 9.59391 14.6562 9.38071 14.6562H8.46701V17.5625H9.01523V16.5312H9.38071C9.56345 16.5312 9.74619 16.5 9.86802 16.4688C10.0203 16.4062 10.1117 16.3438 10.203 16.25C10.2944 16.1875 10.3858 16.0938 10.4162 15.9688C10.4772 15.8438 10.4772 15.7188 10.4772 15.5938C10.4772 15.4375 10.4772 15.3125 10.4162 15.2188C10.3858 15.0938 10.3249 15 10.2335 14.9062ZM9.92893 15.8125C9.89848 15.875 9.86802 15.9375 9.83756 15.9688C9.77665 16 9.71574 16.0625 9.65482 16.0625C9.56345 16.0938 9.50254 16.125 9.38071 16.125H9.01523V15.0625H9.38071C9.50254 15.0625 9.56345 15.0938 9.65482 15.0938C9.71574 15.125 9.77665 15.1562 9.83756 15.2188C9.86802 15.25 9.89848 15.3125 9.92893 15.375C9.95939 15.4375 9.95939 15.5 9.95939 15.5625C9.95939 15.6562 9.95939 15.7188 9.92893 15.8125ZM13.0051 15.0625C12.8832 14.9375 12.731 14.8438 12.5482 14.75C12.3655 14.6875 12.1827 14.6562 11.9695 14.6562H10.9036V17.5625H11.9695C12.1827 17.5625 12.3655 17.5 12.5482 17.4375C12.731 17.375 12.8832 17.2812 13.0051 17.1562C13.1269 17.0312 13.2183 16.875 13.3096 16.6875C13.3706 16.5 13.401 16.3125 13.401 16.0938C13.401 15.9062 13.3706 15.6875 13.3096 15.5312C13.2183 15.3438 13.1269 15.1875 13.0051 15.0625ZM12.7919 16.5312C12.7614 16.6562 12.7005 16.75 12.6091 16.8438C12.5482 16.9375 12.4569 17 12.335 17.0625C12.2437 17.0938 12.1218 17.125 11.9695 17.125H11.4213V15.0938H11.9695C12.0914 15.0938 12.2437 15.0938 12.335 15.1562C12.4569 15.1875 12.5482 15.2812 12.6091 15.3438C12.7005 15.4375 12.7614 15.5625 12.7919 15.6875C12.8528 15.8125 12.8528 15.9375 12.8528 16.0938C12.8528 16.25 12.8528 16.4062 12.7919 16.5312ZM15.5939 15.0938V14.6562H13.797V17.5625H14.3452V16.375H15.3807V15.9375H14.3452V15.0938H15.5939Z" fill="black"/>
</svg>

<svg xmlns="http://www.w3.org/2000/svg" width="24" height="24" viewBox="0 0 24 24"><path d="M18 7.688 14.376 4H6v16h12V7.688ZM7.401 18.562V5.438h6.396l2.802 2.874v10.25H7.401Zm2.832-3.656a3.241 3.241 0 0 0-.335-.187c-.152-.031-.304-.063-.517-.063h-.914v2.906h.548v-1.031h.366c.182 0 .365-.031.487-.062a.908.908 0 0 0 .335-.219.494.494 0 0 0 .213-.281c.061-.125.061-.25.061-.375 0-.156 0-.282-.061-.375a.646.646 0 0 0-.183-.313Zm-.304.906c-.031.063-.061.126-.091.157-.061.031-.122.093-.183.093-.092.032-.152.063-.274.063h-.366v-1.063h.366c.122 0 .182.032.274.032a.622.622 0 0 1 .183.125c.03.031.06.093.091.156.03.063.03.125.03.187 0 .094 0 .157-.03.25Zm3.076-.75a1.733 1.733 0 0 0-.457-.312 1.739 1.739 0 0 0-.578-.094h-1.066v2.906h1.066c.213 0 .396-.062.578-.124.183-.063.335-.157.457-.282a1.77 1.77 0 0 0 .305-.468c.061-.188.091-.376.091-.594 0-.188-.03-.406-.091-.563a1.793 1.793 0 0 0-.305-.469Zm-.213 1.469a.662.662 0 0 1-.183.313.658.658 0 0 1-.274.218 1.086 1.086 0 0 1-.365.063h-.549v-2.031h.549c.121 0 .274 0 .365.062a.62.62 0 0 1 .274.188.757.757 0 0 1 .183.344c.061.124.061.25.061.406 0 .156 0 .312-.061.437Zm2.802-1.437v-.438h-1.797v2.906h.548v-1.187h1.036v-.437h-1.036v-.844h1.249Z"/></svg>
